images/icons/dark/expert.svg

<svg height="140" viewBox="0 0 142 140" width="142" xmlns="http://www.w3.org/2000/svg" xmlns:xlink="http://www.w3.org/1999/xlink"><defs><path id="a" d="m44.3478261 52.6584151c0-12.6682264 11.2849989-22.7213082 24.4486273-22.7213082 12.9939458 0 24.156641 9.796717 24.4420164 22.2343271l8.5006602 26.5007295h-8.4951511v3.6159749c0 6.590478-2.9793631 9.5526666-9.5518117 9.5526666h-3.6889452v16.461082h-35.6553959zm6.5283752 0v49.7067799h23.9296628v-16.4610818h9.5518117c3.3583946 0 3.6889452-.3291321 3.6889452-3.6159748v-9.5526667h6.288175l-6.288175-19.6068679v-.4701887c0-9.2089811-8.505068-16.7846164-18.5846589-16.7846164-10.0806928 0-18.5857608 7.5756353-18.5857608 16.7846164zm62.5141817 63.5043729c10.816139-10.737462 17.51916-25.0439687 18.872145-40.2862675l5.50479.5044068c-1.472366 16.574652-8.757922 32.1292557-20.514739 43.8002647-11.775608 11.687859-27.2851877 18.725964-43.6713336 19.819033l-.3614591-5.605769c15.0707443-1.00432 29.3378777-7.479601 40.1705967-18.231668zm-49.9121221-110.62120648c-30.8135094 2.54670313-55.19574872 26.87717078-57.97426962 57.85464488l-5.50399128-.4993317c3.02166911-33.6765346 29.5270343-60.12888418 63.0262262-62.8968947zm68.8583931 59.74466728c-1.114993-15.2345699-7.622999-29.6173649-18.323599-40.4979213-10.695052-10.8760793-24.8892949-17.55372565-39.9688751-18.80396549l.4548726-5.57850975c16.3953823 1.35992964 31.8266565 8.61960345 43.4525335 20.44035814 11.631424 11.8274704 18.705248 27.4638632 19.916762 44.028142zm-126.81831433 9.5565185c2.28436684 30.9782897 26.29456753 55.6869517 57.09035603 58.7490177l-.5456361 5.527712c-33.4785914-3.331954-59.57947472-30.191948-62.0630596-63.8668993zm74.19532993-9.7244176-2.3607653 2.3904604-4.0993391-2.7668931c-.6032695.3381132-1.2477217.6052226-1.921113.8047094l-.9672348 4.8936252h-3.3391304l-.9672348-4.8936252c-.6733913-.1994868-1.3178435-.4665962-1.9211131-.8047094l-4.0993391 2.7668931-2.3607652-2.3904604 2.7325217-4.1509032c-.333913-.6108578-.5977043-1.2634163-.794713-1.9452779l-4.8328348-.9794013v-3.3811321l4.8328348-.9794012c.1970087-.6818617.4608-1.3344202.794713-1.945278l-2.7325217-4.1509032 2.3607652-2.3904603 4.0993391 2.766893c.6032696-.3381132 1.2477218-.6052226 1.9211131-.8047094l.9672348-4.8936252h3.3391304l.9672348 4.8936252c.6733913.1994868 1.3178435.4665962 1.921113.8047094l4.0993391-2.766893 2.3607653 2.3904603-2.7325218 4.1509032c.3339131.6108578.5977044 1.2634163.7947131 1.945278l4.8328348.9794012v3.3811321l-4.8328348.9794013c-.1970087.6818616-.4608 1.3344201-.7947131 1.9452779zm-11.0180174-4.8214944c2.1481739 0 3.8956521-1.7694591 3.8956521-3.944654 0-2.175195-1.7474782-3.9446541-3.8956521-3.9446541s-3.8956522 1.7694591-3.8956522 3.9446541c0 2.1751949 1.7474783 3.944654 3.8956522 3.944654z"/><filter id="b" height="102.9%" width="105.8%" x="-1.5%" y="-1.4%"><feOffset dx="4" dy="0" in="SourceAlpha" result="shadowOffsetOuter1"/><feColorMatrix in="shadowOffsetOuter1" type="matrix" values="0 0 0 0 0.0901960784   0 0 0 0 0.882352941   0 0 0 0 0.996078431  0 0 0 1 0"/></filter><filter id="c" height="102.9%" width="105.8%" x="-1.5%" y="-1.4%"><feOffset dx="4" dy="0" in="SourceAlpha" result="shadowOffsetInner1"/><feComposite in="shadowOffsetInner1" in2="SourceAlpha" k2="-1" k3="1" operator="arithmetic" result="shadowInnerInner1"/><feColorMatrix in="shadowInnerInner1" type="matrix" values="0 0 0 0 1   0 0 0 0 0.152941176   0 0 0 0 0.321568627  0 0 0 1 0"/></filter><path id="d" d="m46.0869565 52.6584151c0-12.6682264 11.2849989-22.7213082 24.4486274-22.7213082 12.9939457 0 24.1566409 9.796717 24.4420163 22.2343271l8.5006608 26.5007295h-8.4951516v3.6159749c0 6.590478-2.9793632 9.5526666-9.5518118 9.5526666h-3.6889451v16.461082h-35.655396zm6.5283752 0v49.7067799h23.9296628v-16.4610818h9.5518118c3.3583945 0 3.6889451-.3291321 3.6889451-3.6159748v-9.5526667h6.2881751l-6.2881751-19.6068679v-.4701887c0-9.2089811-8.505068-16.7846164-18.5846589-16.7846164-10.0806928 0-18.5857608 7.5756353-18.5857608 16.7846164zm62.5141823 63.5043729c10.816138-10.737462 17.51916-25.0439687 18.872144-40.2862675l5.50479.5044068c-1.472365 16.574652-8.757922 32.1292557-20.514738 43.8002647-11.775608 11.687859-27.2851883 18.725964-43.6713342 19.819033l-.3614591-5.605769c15.0707443-1.00432 29.3378773-7.479601 40.1705973-18.231668zm-49.9121227-110.62120648c-30.8135094 2.54670313-55.1957487 26.87717078-57.97426959 57.85464488l-5.50399128-.4993317c3.02166911-33.6765346 29.52703437-60.12888418 63.02622627-62.8968947zm68.8583927 59.74466728c-1.114992-15.2345699-7.622998-29.6173649-18.323598-40.4979213-10.695053-10.8760793-24.8892954-17.55372565-39.9688757-18.80396549l.4548726-5.57850975c16.3953823 1.35992964 31.8266571 8.61960345 43.4525341 20.44035814 11.631424 11.8274704 18.705247 27.4638632 19.916761 44.028142zm-126.8183139 9.5565185c2.28436684 30.9782897 26.2945675 55.6869517 57.090356 58.7490177l-.5456361 5.527712c-33.4785913-3.331954-59.57947469-30.191948-62.06305957-63.8668993zm74.1953299-9.7244176-2.3607652 2.3904604-4.0993391-2.7668931c-.6032696.3381132-1.2477218.6052226-1.9211131.8047094l-.9672348 4.8936252h-3.3391304l-.9672348-4.8936252c-.6733913-.1994868-1.3178435-.4665962-1.921113-.8047094l-4.0993392 2.7668931-2.3607652-2.3904604 2.7325218-4.1509032c-.3339131-.6108578-.5977044-1.2634163-.7947131-1.9452779l-4.8328348-.9794013v-3.3811321l4.8328348-.9794012c.1970087-.6818617.4608-1.3344202.7947131-1.945278l-2.7325218-4.1509032 2.3607652-2.3904603 4.0993392 2.766893c.6032695-.3381132 1.2477217-.6052226 1.921113-.8047094l.9672348-4.8936252h3.3391304l.9672348 4.8936252c.6733913.1994868 1.3178435.4665962 1.9211131.8047094l4.0993391-2.766893 2.3607652 2.3904603-2.7325217 4.1509032c.333913.6108578.5977043 1.2634163.794713 1.945278l4.8328348.9794012v3.3811321l-4.8328348.9794013c-.1970087.6818616-.4608 1.3344201-.794713 1.9452779zm-11.0180174-4.8214944c2.1481739 0 3.8956522-1.7694591 3.8956522-3.944654 0-2.175195-1.7474783-3.9446541-3.8956522-3.9446541s-3.8956522 1.7694591-3.8956522 3.9446541c0 2.1751949 1.7474783 3.944654 3.8956522 3.944654z"/><filter id="e" height="101.4%" width="101.5%" x="-.7%" y="-.7%"><feOffset dx="2" dy="0" in="SourceAlpha" result="shadowOffsetInner1"/><feComposite in="shadowOffsetInner1" in2="SourceAlpha" k2="-1" k3="1" operator="arithmetic" result="shadowInnerInner1"/><feColorMatrix in="shadowInnerInner1" type="matrix" values="0 0 0 0 1   0 0 0 0 0.152941176   0 0 0 0 0.321568627  0 0 0 0.5 0"/></filter></defs><g fill="none" fill-rule="evenodd"><use fill="#000" filter="url(#b)" xlink:href="#a"/><use fill="#ff2752" fill-rule="evenodd" xlink:href="#a"/><g fill="#000"><use filter="url(#c)" xlink:href="#a"/><use fill-rule="evenodd" xlink:href="#d"/><use filter="url(#e)" xlink:href="#d"/></g></g></svg>

<?xml version="1.0" encoding="UTF-8"?>
<svg width="142px" height="140px" viewBox="0 0 142 140" version="1.1" xmlns="http://www.w3.org/2000/svg" xmlns:xlink="http://www.w3.org/1999/xlink">
    <!-- Generator: Sketch 50.2 (55047) - http://www.bohemiancoding.com/sketch -->
    <title>Expert</title>
    <desc>Created with Sketch.</desc>
    <defs>
        <path d="M44.3478261,52.6584151 C44.3478261,39.9901887 55.632825,29.9371069 68.7964534,29.9371069 C81.7903992,29.9371069 92.9530944,39.7338239 93.2384698,52.171434 L101.73913,78.6721635 L93.2439789,78.6721635 L93.2439789,82.2881384 C93.2439789,88.8786164 90.2646158,91.840805 83.6921672,91.840805 L80.003222,91.840805 L80.003222,108.301887 L44.3478261,108.301887 L44.3478261,52.6584151 Z M50.8762013,52.6584151 L50.8762013,102.365195 L74.8058641,102.365195 L74.8058641,85.9041132 L84.3576758,85.9041132 C87.7160704,85.9041132 88.046621,85.5749811 88.046621,82.2881384 L88.046621,72.7354717 L94.334796,72.7354717 L88.046621,53.1286038 L88.046621,52.6584151 C88.046621,43.449434 79.541553,35.8737987 69.4619621,35.8737987 C59.3812693,35.8737987 50.8762013,43.449434 50.8762013,52.6584151 Z M113.390383,116.162788 C124.206522,105.425326 130.909543,91.1188193 132.262528,75.8765205 L137.767318,76.3809273 C136.294952,92.9555793 129.009396,108.510183 117.252579,120.181192 C105.476971,131.869051 89.9673913,138.907156 73.5812454,140.000225 L73.2197863,134.394456 C88.2905306,133.390136 102.557664,126.914855 113.390383,116.162788 Z M63.4782609,5.54158152 C32.6647515,8.08828465 8.28251218,32.4187523 5.50399128,63.3962264 L0,62.8968947 C3.02166911,29.2203601 29.5270343,2.76801052 63.0262262,0 L63.4782609,5.54158152 Z M132.336654,65.2862488 C131.221661,50.0516789 124.713655,35.6688839 114.013055,24.7883275 C103.318003,13.9122482 89.1237601,7.23460185 74.0441799,5.98436201 L74.4990525,0.405852255 C90.8944348,1.7657819 106.325709,9.02545571 117.951586,20.8462104 C129.58301,32.6736808 136.656834,48.3100736 137.868348,64.8743524 L132.336654,65.2862488 Z M5.51833967,74.8427673 C7.80270651,105.821057 31.8129072,130.529719 62.6086957,133.591785 L62.0630596,139.119497 C28.5844682,135.787543 2.48358488,108.927549 0,75.2525977 L5.51833967,74.8427673 Z M79.7136696,65.1183497 L77.3529043,67.5088101 L73.2535652,64.741917 C72.6502957,65.0800302 72.0058435,65.3471396 71.3324522,65.5466264 L70.3652174,70.4402516 L67.026087,70.4402516 L66.0588522,65.5466264 C65.3854609,65.3471396 64.7410087,65.0800302 64.1377391,64.741917 L60.0384,67.5088101 L57.6776348,65.1183497 L60.4101565,60.9674465 C60.0762435,60.3565887 59.8124522,59.7040302 59.6154435,59.0221686 L54.7826087,58.0427673 L54.7826087,54.6616352 L59.6154435,53.682234 C59.8124522,53.0003723 60.0762435,52.3478138 60.4101565,51.736956 L57.6776348,47.5860528 L60.0384,45.1955925 L64.1377391,47.9624855 C64.7410087,47.6243723 65.3854609,47.3572629 66.0588522,47.1577761 L67.026087,42.2641509 L70.3652174,42.2641509 L71.3324522,47.1577761 C72.0058435,47.3572629 72.6502957,47.6243723 73.2535652,47.9624855 L77.3529043,45.1955925 L79.7136696,47.5860528 L76.9811478,51.736956 C77.3150609,52.3478138 77.5788522,53.0003723 77.7758609,53.682234 L82.6086957,54.6616352 L82.6086957,58.0427673 L77.7758609,59.0221686 C77.5788522,59.7040302 77.3150609,60.3565887 76.9811478,60.9674465 L79.7136696,65.1183497 Z M68.6956522,60.2968553 C70.8438261,60.2968553 72.5913043,58.5273962 72.5913043,56.3522013 C72.5913043,54.1770063 70.8438261,52.4075472 68.6956522,52.4075472 C66.5474783,52.4075472 64.8,54.1770063 64.8,56.3522013 C64.8,58.5273962 66.5474783,60.2968553 68.6956522,60.2968553 Z" id="path-1"></path>
        <filter x="-1.5%" y="-1.4%" width="105.8%" height="102.9%" filterUnits="objectBoundingBox" id="filter-2">
            <feOffset dx="4" dy="0" in="SourceAlpha" result="shadowOffsetOuter1"></feOffset>
            <feColorMatrix values="0 0 0 0 0.0901960784   0 0 0 0 0.882352941   0 0 0 0 0.996078431  0 0 0 1 0" type="matrix" in="shadowOffsetOuter1"></feColorMatrix>
        </filter>
        <filter x="-1.5%" y="-1.4%" width="105.8%" height="102.9%" filterUnits="objectBoundingBox" id="filter-3">
            <feOffset dx="4" dy="0" in="SourceAlpha" result="shadowOffsetInner1"></feOffset>
            <feComposite in="shadowOffsetInner1" in2="SourceAlpha" operator="arithmetic" k2="-1" k3="1" result="shadowInnerInner1"></feComposite>
            <feColorMatrix values="0 0 0 0 1   0 0 0 0 0.152941176   0 0 0 0 0.321568627  0 0 0 1 0" type="matrix" in="shadowInnerInner1"></feColorMatrix>
        </filter>
        <path d="M46.0869565,52.6584151 C46.0869565,39.9901887 57.3719554,29.9371069 70.5355839,29.9371069 C83.5295296,29.9371069 94.6922248,39.7338239 94.9776002,52.171434 L103.478261,78.6721635 L94.9831094,78.6721635 L94.9831094,82.2881384 C94.9831094,88.8786164 92.0037462,91.840805 85.4312976,91.840805 L81.7423525,91.840805 L81.7423525,108.301887 L46.0869565,108.301887 L46.0869565,52.6584151 Z M52.6153317,52.6584151 L52.6153317,102.365195 L76.5449945,102.365195 L76.5449945,85.9041132 L86.0968063,85.9041132 C89.4552008,85.9041132 89.7857514,85.5749811 89.7857514,82.2881384 L89.7857514,72.7354717 L96.0739265,72.7354717 L89.7857514,53.1286038 L89.7857514,52.6584151 C89.7857514,43.449434 81.2806834,35.8737987 71.2010925,35.8737987 C61.1203997,35.8737987 52.6153317,43.449434 52.6153317,52.6584151 Z M115.129514,116.162788 C125.945652,105.425326 132.648674,91.1188193 134.001658,75.8765205 L139.506448,76.3809273 C138.034083,92.9555793 130.748526,108.510183 118.99171,120.181192 C107.216102,131.869051 91.7065217,138.907156 75.3203758,140.000225 L74.9589167,134.394456 C90.029661,133.390136 104.296794,126.914855 115.129514,116.162788 Z M65.2173913,5.54158152 C34.4038819,8.08828465 10.0216426,32.4187523 7.24312171,63.3962264 L1.73913043,62.8968947 C4.76079954,29.2203601 31.2661648,2.76801052 64.7653567,0 L65.2173913,5.54158152 Z M134.075784,65.2862488 C132.960792,50.0516789 126.452786,35.6688839 115.752186,24.7883275 C105.057133,13.9122482 90.8628906,7.23460185 75.7833103,5.98436201 L76.2381829,0.405852255 C92.6335652,1.7657819 108.06484,9.02545571 119.690717,20.8462104 C131.322141,32.6736808 138.395964,48.3100736 139.607478,64.8743524 L134.075784,65.2862488 Z M7.2574701,74.8427673 C9.54183694,105.821057 33.5520376,130.529719 64.3478261,133.591785 L63.80219,139.119497 C30.3235987,135.787543 4.22271531,108.927549 1.73913043,75.2525977 L7.2574701,74.8427673 Z M81.4528,65.1183497 L79.0920348,67.5088101 L74.9926957,64.741917 C74.3894261,65.0800302 73.7449739,65.3471396 73.0715826,65.5466264 L72.1043478,70.4402516 L68.7652174,70.4402516 L67.7979826,65.5466264 C67.1245913,65.3471396 66.4801391,65.0800302 65.8768696,64.741917 L61.7775304,67.5088101 L59.4167652,65.1183497 L62.149287,60.9674465 C61.8153739,60.3565887 61.5515826,59.7040302 61.3545739,59.0221686 L56.5217391,58.0427673 L56.5217391,54.6616352 L61.3545739,53.682234 C61.5515826,53.0003723 61.8153739,52.3478138 62.149287,51.736956 L59.4167652,47.5860528 L61.7775304,45.1955925 L65.8768696,47.9624855 C66.4801391,47.6243723 67.1245913,47.3572629 67.7979826,47.1577761 L68.7652174,42.2641509 L72.1043478,42.2641509 L73.0715826,47.1577761 C73.7449739,47.3572629 74.3894261,47.6243723 74.9926957,47.9624855 L79.0920348,45.1955925 L81.4528,47.5860528 L78.7202783,51.736956 C79.0541913,52.3478138 79.3179826,53.0003723 79.5149913,53.682234 L84.3478261,54.6616352 L84.3478261,58.0427673 L79.5149913,59.0221686 C79.3179826,59.7040302 79.0541913,60.3565887 78.7202783,60.9674465 L81.4528,65.1183497 Z M70.4347826,60.2968553 C72.5829565,60.2968553 74.3304348,58.5273962 74.3304348,56.3522013 C74.3304348,54.1770063 72.5829565,52.4075472 70.4347826,52.4075472 C68.2866087,52.4075472 66.5391304,54.1770063 66.5391304,56.3522013 C66.5391304,58.5273962 68.2866087,60.2968553 70.4347826,60.2968553 Z" id="path-4"></path>
        <filter x="-0.7%" y="-0.7%" width="101.5%" height="101.4%" filterUnits="objectBoundingBox" id="filter-5">
            <feOffset dx="2" dy="0" in="SourceAlpha" result="shadowOffsetInner1"></feOffset>
            <feComposite in="shadowOffsetInner1" in2="SourceAlpha" operator="arithmetic" k2="-1" k3="1" result="shadowInnerInner1"></feComposite>
            <feColorMatrix values="0 0 0 0 1   0 0 0 0 0.152941176   0 0 0 0 0.321568627  0 0 0 0.5 0" type="matrix" in="shadowInnerInner1"></feColorMatrix>
        </filter>
    </defs>
    <g id="Desktop" stroke="none" stroke-width="1" fill="none" fill-rule="evenodd">
        <g id="Fullstack" transform="translate(-186.000000, -1786.000000)">
            <g id="Productivity" transform="translate(0.000000, 928.000000)">
                <g id="We-Are-Expers" transform="translate(0.000000, 608.000000)">
                    <g id="bg">
                        <g id="icon" transform="translate(80.000000, 144.000000)">
                            <g id="Expert" transform="translate(106.000000, 106.000000)">
                                <g id="Combined-Shape">
                                    <use fill="black" fill-opacity="1" filter="url(#filter-2)" xlink:href="#path-1"></use>
                                    <use fill="#FF2752" fill-rule="evenodd" xlink:href="#path-1"></use>
                                    <use fill="black" fill-opacity="1" filter="url(#filter-3)" xlink:href="#path-1"></use>
                                </g>
                                <g id="Combined-Shape">
                                    <use fill="#000000" fill-rule="evenodd" xlink:href="#path-4"></use>
                                    <use fill="black" fill-opacity="1" filter="url(#filter-5)" xlink:href="#path-4"></use>
                                </g>
                            </g>
                        </g>
                    </g>
                </g>
            </g>
        </g>
    </g>
</svg>
